brandFactory_export/3.Masa/Link Enlace_3Masa.svg

<?xml version="1.0" encoding="UTF-8"?>
<svg width="24px" height="24px" viewBox="0 0 24 24" version="1.1" xmlns="http://www.w3.org/2000/svg" xmlns:xlink="http://www.w3.org/1999/xlink">
    <title>3.Masa/Link Enlace_3Masa</title>
    <g id="Symbols" stroke="none" stroke-width="1" fill="none" fill-rule="evenodd">
        <g id="3.Masa/Link-Enlace_3Masa" fill="#5CB615" fill-rule="nonzero">
            <path d="M12.0504202,17.3579832 C12.4134454,16.9680672 13.0285714,16.9445378 13.4184874,17.3109244 C13.8084034,17.6773109 13.8319328,18.292437 13.4655462,18.6857143 C13.1361345,19.0420168 12.789916,19.4084034 12.5008403,19.6941176 C10.1411765,22.0638655 7.99327731,23.6571429 5.8487395,23.6571429 C4.5512605,23.6571429 3.2605042,23.0756303 1.92268908,21.7344538 C0.282352941,20.087395 -0.282352941,18.3932773 0.188235294,16.5579832 C0.591596639,14.9983193 1.7512605,13.3142857 3.95294118,11.102521 C7.73781513,7.30084034 10.9815126,5.49579832 14.5277311,9.06218487 C15.4117647,9.94957983 15.9697479,10.8302521 16.2386555,11.7478992 C16.389916,12.2655462 16.0941176,12.8033613 15.5798319,12.9546218 C15.0689076,13.1092437 14.5277311,12.810084 14.3764706,12.2957983 C14.2016807,11.697479 13.8016807,11.0890756 13.1529412,10.4369748 C11.2302521,8.50084034 9.48907563,8.28571429 5.31764706,12.4773109 C1.14621849,16.6689076 1.36134454,18.4201681 3.28739496,20.3563025 C5.21344538,22.292437 6.95462185,22.507563 11.1260504,18.3159664 C11.4084034,18.0436975 11.7378151,17.697479 12.0504202,17.3579832 Z M21.7647059,1.93613445 C23.4016807,3.58319328 23.9697479,5.27731092 23.4991597,7.11260504 C23.0957983,8.67226891 21.9361345,10.3563025 19.7344538,12.5680672 C17.5361345,14.7798319 15.8588235,15.9462185 14.3092437,16.3495798 C13.8957983,16.4571429 13.4890756,16.5109244 13.0890756,16.5109244 C11.7210084,16.5109244 10.4268908,15.8823529 9.15966387,14.6084034 C8.35630252,13.8016807 7.82521008,13.005042 7.52941176,12.1747899 C7.3512605,11.6672269 7.61344538,11.1092437 8.11764706,10.9310924 C8.61848739,10.7529412 9.17647059,11.0151261 9.35462185,11.5226891 C9.54957983,12.0739496 9.93277311,12.6319328 10.5277311,13.2336134 C11.989916,14.702521 13.0554622,14.6655462 13.8218487,14.4672269 C15.005042,14.1613445 16.4470588,13.1193277 18.3630252,11.1932773 C20.2789916,9.26722689 21.3142857,7.81512605 21.6201681,6.62521008 C21.8184874,5.85546218 21.8588235,4.78655462 20.3932773,3.31428571 C18.9310924,1.84201681 17.8655462,1.8789916 17.0991597,2.08067227 C15.9159664,2.38991597 14.4739496,3.42857143 12.5546218,5.35462185 C12.1915966,5.7210084 11.8554622,6.07394958 11.5428571,6.41680672 C11.1831933,6.81680672 10.5714286,6.84369748 10.1747899,6.48067227 C9.77815126,6.1210084 9.7512605,5.50252101 10.1109244,5.10588235 C10.4403361,4.74285714 10.8,4.36638655 11.1865546,3.97647059 C13.3882353,1.76470588 15.0621849,0.598319328 16.6151261,0.194957983 C18.4403361,-0.282352941 20.1243697,0.28907563 21.7647059,1.93613445 Z" id="Link-Enlace_3Masa"></path>
        </g>
    </g>
</svg>

<svg width="24" height="24" viewBox="0 0 24 24" xmlns="http://www.w3.org/2000/svg"><path d="M12.05 17.358a.967.967 0 011.368-.047c.39.366.414.981.048 1.375-.33.356-.676.722-.965 1.008-2.36 2.37-4.508 3.963-6.652 3.963-1.298 0-2.588-.581-3.926-1.923-1.64-1.647-2.205-3.34-1.735-5.176.404-1.56 1.563-3.244 3.765-5.455 3.785-3.802 7.029-5.607 10.575-2.04.884.887 1.442 1.767 1.71 2.685a.972.972 0 01-1.862.548c-.174-.599-.574-1.207-1.223-1.859-1.923-1.936-3.664-2.151-7.835 2.04-4.172 4.192-3.957 5.943-2.03 7.88 1.925 1.935 3.667 2.15 7.838-2.041.282-.272.612-.619.924-.958zm9.715-15.422c1.637 1.647 2.205 3.341 1.734 5.177-.403 1.56-1.563 3.243-3.765 5.455-2.198 2.212-3.875 3.378-5.425 3.782-.413.107-.82.16-1.22.16-1.368 0-2.662-.628-3.93-1.902-.803-.806-1.334-1.603-1.63-2.433a.97.97 0 111.825-.652c.196.55.579 1.109 1.174 1.71 1.462 1.47 2.527 1.433 3.294 1.234 1.183-.306 2.625-1.348 4.541-3.274 1.916-1.926 2.951-3.378 3.257-4.568.198-.77.239-1.838-1.227-3.31-1.462-1.473-2.527-1.436-3.294-1.234-1.183.309-2.625 1.348-4.544 3.274-.363.366-.7.719-1.012 1.062a.962.962 0 01-1.368.064.976.976 0 01-.064-1.375c.33-.363.689-.74 1.076-1.13C13.388 1.765 15.062.598 16.615.195c1.825-.477 3.51.094 5.15 1.741z" fill="#5CB615" fill-rule="nonzero"/></svg>
